X:1
T:Title
%%score { ( 1 3 ) | ( 2 4 ) }
L:1/8
M:4/4
K:Bb
V:1 treble nm="Grand Piano"
V:3 treble 
V:2 bass 
V:4 bass 
V:1
 z4 z2[Q:1/4=100] [DF]2 | [DB]2 [DB]2 [DA][DA][DB][DA] | [EG]2 [EG]2 [DF]2 [DF]>[DF] | [EF]6 z2 | %4
 [DF]6 z2 | [DB]2 [DB]2 [DA][DA][DB][B,DA] | [B,EG]2 [B,EG]2 [B,DF]2 [B,DF]>[DFB] | [EA]6 z2 | %8
 [DB]6 z2 | [DF][DF] [DF]2 [DF][DF][_D=E][=DF] | [B,EG]2 [B,EG]2 [B,DF]2 [DFB]2 | [EA]6 z2 | %12
 [DF]8 | [DF][DF] [DF]2 [DF]2 [_D=E][=DF] | [EG]2 [EG]2 [DF]2 [Ge]2 | [Fd]6 z2 | [B,DB]6 F2 | %17
 d6 z2 | d6 z2 | [Fd]2 [DB]2 [EA]2 [FB]2 | [EG]6 z2 | e6 z2 | e6 z2 | [Ge]2 [EG]2 [FA]2 [EG]2 | %24
 [DF]8 | [DF][DF] [DF]2 [DF][DF][_D=E][=DF] | [EG]2 [EG]2 [DF]2 [Ge]2 | [Fd]6 z2 |[M:3/4] B6 |] %29
V:2
 z4 z2 [B,,B,]2 | [B,,F,]2 [B,,F,]2 [B,,F,][B,,F,][B,,F,][B,,B,] | %2
 [E,B,]2 [E,B,]2 [B,,B,]2 [B,,B,]>[B,,B,] | [C,A,]2 C,2 F,[F,A,E] [F,A,E]>[F,A,] | %4
 [B,,B,]2 B,,>B,, B,,2 B,,2 | [B,,F,]2 [B,,F,]2 [B,,F,][B,,F,][B,,F,]B,, | E,2 E,2 B,,2 B,,>B,, | %7
 F,2 F,2 F,[F,B,E] [F,A,E]>[F,A,E] | [B,,B,]6 z2 | %9
 [B,,B,][B,,B,] [B,,B,]2 [B,,B,][B,,B,][B,,B,][B,,B,] | E,2 E,2 B,,2 B,,2 | %11
 F,2 F,2 F,[F,B,E] [F,A,]>[F,A,E] | [B,,B,]2 B,,B,, B,,4 | %13
 [B,,B,][B,,B,] [B,,B,]2 [B,,B,]2 [B,,B,][B,,B,] | [E,B,]2 [E,B,]2 [B,,B,]2 [E,B,]2 | %15
 [F,B,]2 F,2 F,[F,A,E] [F,A,E]>[F,A,E] | B,,6[K:treble] D2 | F6 D2 | F6[K:bass] [B,,B,]2 | %19
 [B,,B,]2 [B,,F,]2 [C,F,]2 [D,B,]2 | [E,B,]2 E,E, E,2[K:treble] E2 | G6[K:bass][K:treble] z2 | %22
 G6[K:bass] z2 | [E,B,]2 [E,B,]2 [E,B,]2 [E,B,]2 | [B,,B,]2 B,,B,, B,,4 | %25
 [B,,B,][B,,B,] [B,,B,]2 [B,,B,][B,,B,][B,,B,][B,,B,] | [E,B,]2 [E,B,]2 [B,,B,]2 [E,B,]2 | %27
 [F,B,]2 F,2 F,[F,A,E] [F,A,E]>[F,A,E] |[M:3/4] z2 G,G, F,2 |] %29
V:3
 x8 | x8 | x8 | z2 A,2 A,G F>C | z2 B,>B, B,2 [B,DF]2 | x8 | x8 | C2 C2 CG F>c | x8 | x8 | x8 | %11
 C2 C2 CG C>G | z2 B,B, B,4 | x8 | x8 | z2 B,2 B,c F>c | x8 | z2 B,2 B,2 F2 | z2 B,2 B,2 [DF]2 | %19
 x8 | z2 B,B, B,2 G2 | z2 B,2 B,2 G2 | z2 B,2 B,2 G2 | x8 | z2 B,B, B,4 | x8 | x8 | %27
 z2 B,2 B,c F>c |[M:3/4] [B,D]2 EE D2 |] %29
V:4
 x8 | x8 | x8 | x8 | x8 | x8 | x8 | x8 | x8 | x8 | x8 | x8 | x8 | x8 | x8 | x8 | x6[K:treble] x2 | %17
 x8 | x6[K:bass] x2 | x8 | x6[K:treble] x2 | z2[K:bass] E,2 E,2[K:treble] E2 | %22
 z2[K:bass] E,2 E,2 [E,B,E]2 | x8 | x8 | x8 | x8 | x8 |[M:3/4] B,,6 |] %29

